X:286
T: Oi Tate
O:klezmer
Z: John Chambers <jc@trillian.mit.edu>
B: Sapoznik "The Compleat Klezmer" p. 64
M: 2/4
L: 1/16
K: Gm
|: "D"^F3E D2D2 | "Cm"EDCE "D"D4 | DE^FG ABAG | A3G ^FEDE \
|  "D"^F3E D2D2 | "Cm"EDCE "D"D4 | DE^FG "Cm"AGFE | "D"^FED2- D4 :|
|: "D"^FGA2- A2G2 | "Cm"^FGFE "D"D4 | ^FGFG "Gm"B2AG | "D"^FGA2- AGFE \
|  "D"^FGA2- A2G2 | "Cm"^FGFE "D"D4 | "Cm"CEEC AG^FE | "D"^FED2- D4 :|
|: "Gm"GGGG B2AG | "D"AAAA A4 | DDDD  "Cm"G2^FE | "D"DE^F2- F4 \
|  "Cm"CCCC E2DC | EEEE G2^FE | "D"^FGAG "Cm"F3E | "D"~E2D2- D4 :|
|: "Gm"GAB2- B2B2 | "Cm"c2c2 "Gm"B4 | "Cm"c4 "Gm"G2G2 | "D7"BcBA "Gm"G4 \
|  "D"^FGA2- A2c2 | BAG^F A3G | ^FGAG "Cm"F3E | "D"~E2D2- D4 :|





